images/close-icon.svg

<svg width="33" height="33" viewBox="0 0 33 33" fill="none" xmlns="http://www.w3.org/2000/svg">
<path d="M32.7661 29.5683L19.9759 16.778L32.7661 3.98779L29.5686 0.790236L16.7783 13.5805L3.98808 0.790236L0.790527 3.98779L13.5808 16.778L0.790527 29.5683L3.98808 32.7658L16.7783 19.9756L29.5686 32.7658L32.7661 29.5683Z" fill="white"/>
</svg>

<svg xmlns="http://www.w3.org/2000/svg" width="33" height="33" fill="none"><path fill="#fff" d="m32.766 29.568-12.79-12.79 12.79-12.79L29.57.79l-12.79 12.79L3.988.79.79 3.988l12.79 12.79L.79 29.568l3.197 3.198 12.79-12.79 12.79 12.79 3.198-3.198Z"/></svg>
